wp-content/themes/ecoexplore/dist/images/icon-chat_54224fe3.svg

<svg xmlns="http://www.w3.org/2000/svg" width="14" height="14" viewBox="0 0 14 14">
  <g fill="none" fill-rule="evenodd">
    <rect width="14" height="14"/>
    <path fill="#000349" fill-rule="nonzero" d="M13.0626807,3.48827168 C12.4376096,2.72006059 11.5885658,2.11326851 10.5157684,1.66795016 C9.44299829,1.22268654 8.27097972,1 7.00012314,1 C6.0521593,1 5.14589787,1.13148302 4.28133887,1.39450379 C3.41677987,1.65749719 2.67201955,2.01298021 2.04700318,2.46087075 C1.42187735,2.90881603 0.924595162,3.44137014 0.554746152,4.05850574 C0.184897141,4.6756687 0,5.32284974 0,5.99993941 C0,6.7811483 0.235602248,7.5131571 0.70699829,8.19544588 C1.17839433,8.87765258 1.82283899,9.45065038 2.64063328,9.91419301 C2.58327877,10.1224588 2.51558075,10.3204359 2.43742976,10.5077957 C2.35930613,10.6952925 2.28900855,10.8491317 2.22650965,10.968903 C2.16395602,11.0886743 2.07940191,11.2215529 1.9725463,11.3673745 C1.86585487,11.5131688 1.78513169,11.616084 1.73043147,11.6759013 C1.67578598,11.735828 1.58595065,11.8349397 1.46087075,11.9727711 C1.33595505,12.1109035 1.25517713,12.2006841 1.21875592,12.2424412 C1.21347471,12.2448766 1.19267823,12.2684916 1.15622966,12.3126841 C1.11980845,12.3568766 1.10152944,12.3789866 1.10152944,12.3789866 L1.05465527,12.4492021 C1.02857757,12.4883596 1.01686587,12.5130691 1.01943806,12.5232758 C1.02206499,12.5334825 1.01686587,12.559697 1.0038407,12.60129 C0.990788175,12.6430472 0.992129001,12.674324 1.00772636,12.6952299 L1.00772636,12.7030012 C1.02865966,12.7968317 1.07422038,12.872301 1.14449059,12.9294913 C1.21476081,12.9867364 1.29427999,13.0102145 1.38277449,12.9996247 C1.72140142,12.957977 2.01824383,12.9009509 2.27341119,12.8278896 C3.63804349,12.4787823 4.83600293,11.8487584 5.86720743,10.9371336 C6.25774346,10.9787813 6.63536379,10.9996873 6.99995895,10.9996873 C8.27078817,10.9996873 9.44275202,10.7770007 10.5156316,10.3315456 C11.5885111,9.88628194 12.4374728,9.2794625 13.0624344,8.51138822 C13.6875055,7.7435055 14,6.9061461 14,5.99991204 C14.0000274,5.09365062 13.6875602,4.25634596 13.0626807,3.48827168 Z"/>
  </g>
</svg>

<svg xmlns="http://www.w3.org/2000/svg" width="14" height="14" viewBox="0 0 14 14"><g fill="none" fill-rule="evenodd"><path d="M0 0h14v14H0z"/><path fill="#000349" fill-rule="nonzero" d="M13.063 3.488c-.625-.768-1.474-1.375-2.547-1.82C9.443 1.223 8.27 1 7 1a9.29 9.29 0 0 0-2.719.395c-.864.262-1.609.618-2.234 1.066A5.33 5.33 0 0 0 .555 4.059 3.721 3.721 0 0 0 0 5.999c0 .782.236 1.514.707 2.196.471.683 1.116 1.256 1.934 1.72a4.965 4.965 0 0 1-.204.593 6.078 6.078 0 0 1-.21.46c-.063.12-.148.254-.254.4a4.06 4.06 0 0 1-.243.308l-.27.297a27.72 27.72 0 0 0-.304.34l-.054.066-.047.07c-.026.04-.038.064-.036.074a.208.208 0 0 1-.015.078c-.013.042-.012.073.004.094v.008c.02.094.066.17.136.226.07.058.15.081.239.07a5.8 5.8 0 0 0 .89-.171 8.539 8.539 0 0 0 3.594-1.89c.39.04.768.062 1.133.062 1.27 0 2.443-.223 3.516-.668 1.073-.446 1.921-1.053 2.546-1.82C13.688 7.743 14 6.905 14 6c0-.906-.312-1.744-.937-2.512z"/></g></svg>
